X: 19904
T: Jig For Simon
R: jig
M: 6/8
K: Eminor
DEE EGA|Bde -e z2|B2d BAG|ABd BAG|
[1,3 DEE EGA|Bde d2 z|BdB AGE|DEE GEE:|
[2,4 e2 d3 e|Bde g2 z|BdB AGE|DEE GEE:|
|:EGc- czG|FAd- dza|g2e B2G|GAB F2E|
[1 EGc- czG|FAd- dzA|Bee edB|gBf edB:|
[2 B2c A2G|A2E zEG|B2c AGB-|B3 EFG||
A2G E2D|E3 ABd|e2g edB-|BzG EBG|
A2E EBG|F2D F2G|EFE E2D|EGc- c2B|
AGE A2E|F2E D2E|G2A B2d|e3 edB|
A2B d2e|A2G E2D|E3 E3|E6||

